!!!OTL: 60. Das Lied vom Feldmarschall Blücher.
!!!COM: Volksweise
!!!ODT: 1809
!!!ARE: Europa, Mitteleuropa, Deutschland
!!!SCT: B0060
!!!TXL: @@DE
!!!YEM: Copyright 1995, estate of Helmut Schaffrath.
**kern	**text
*ICvox	*
*Ivox	*
*M4/4	*
*met(c)	*
*clefG2	*
*k[f#]	*
*G:	*
!LO:TX:a:t=Einzelne.	!
!LO:TX:a:t=Schrittmäßig.	!
{8d	Was
=1	=1
8.g	bla-
16g	-ſen
8g	die
8g	Trompe-
!LO:TX:a:t=*	!
4dd	.
8b	-ten?
8g	Hu-
=2	=2
8gL	-ſa-
8eJ	.
8e	-ren,
8e	heraus!
4e	.
8r}	.
{8cc	Es
=3	=3
8ccL	rei-
8bJ	.
8a	-tet
8g	der
(8f#	Feldmarſchall
8a)	.
8dd	.
8f#	im
=4	=4
8aL	flie-
8gJ	.
8g	-gen,
8g	den
4g	Saus.
8r}	.
{8b	Er
=5	=5
8ddL	rei-
8ccJ	.
8a	-tet
8a	ſo
4a	freu-
8g	-dig
8a	ſein
=6	=6
4b	mu-
8g	-thi-
8g	-ges
4.g}	Pferd,
{8dd	er
=7	=7
8ddL	ſchwinget
8ccJ	.
8a	.
8a	ſo
8ccL	ſchnei-
8bJ	.
8a	-dig
8g	ſein
=8	=8
4dd	bli-
8dd	-tʒen-
8dd	-des
(8ddL	Schwert.
8cc	.
8bJ)}	.
{8a	Juch-
=9	=9
!LO:TX:a:t=Alle.	!
4g	-hei-
8g	-raf-
8g	-ſa-
4dd	-ſa!
8b/	und
8g	die
=10	=10
8gL	Preu(Deut)-
8eJ	.
8e	-ßen(ſchen)
8e	ſind
4.e}	da,
{8cc	die
=11	=11
8ccL	Preu-
8bJ	.
8a	-ßen
8g	ſind
8f#L	lu-
8aJ	.
8dd	-ſtig,
8f#	ſie
=12	=12
8aL	ru-
8gJ	.
8g	-fen
8g	Hur-
4g	-rah!
8r}	.
==	==
!!!AGN: Kriegs -, Sieges -, Soldaten - Lied
!!!GTL: Kriegs- und Siegeslieder
!!!ONB: ESAC (Essen Associative Code) Database: BOEHME
!!!AMT: simple quadruple
!!!AIN: vox
!!!EED: Helmut Schaffrath
!!!EEV: 1.0
!!*Statt der Viertelnote d seßt Erk zwei Achtel gd
!!@@COMMENT:" Gedicht von E.M. Arndt 1813. Die Melodie war nach Erk's Angabe schon 1809 vor-
!!handen zu dem Liede: "Frisch auf, ihr Tiroler, wir müssem ins Feld.""
!!@@END:
!!Text: E. M. Arndt
!!!URL-scan: https://archive.org/details/BoehmeVtLieder1895/page/n73/mode/2up
!!!ENC: Anna Maria Matuszewska
!!!EEV: 2024/14/06
*-	*-
